X: 11
T:Fred Finn's
T:Berkshire Heights, The
M:C|
L:1/8
R:reel
K:D
~A3F ABde|fdec d2cA|BE~E2 ~G3B|AF~F2 EFDF|
~A3F ABde|fdec d2cA|BGGB ABde|1 f2eg fddB:|2 f2eg fdde||
|:fdaf bfaf|dfaf fede|fbba ~b3a|fbaf fe~e2|
fdaf bfaf|dfaf fedB|~A3F ABde|1 f2eg fdde:|2 f2eg fddB||

